icons/arrow-tray-up.svg

<svg xmlns="http://www.w3.org/2000/svg" width="24" height="24" viewBox="0 0 24 24">
  <path d="M21,14 C21.5522847,14 22,14.4477153 22,15 L22,15 L22,19 L21.9949073,19.1762728 C21.9036609,20.75108 20.5976809,22 19,22 L19,22 L5,22 L4.82372721,21.9949073 C3.24891996,21.9036609 2,20.5976809 2,19 L2,19 L2,15 L2.00672773,14.8833789 C2.06449284,14.3860402 2.48716416,14 3,14 C3.55228475,14 4,14.4477153 4,15 L4,15 L4,19 L4.00672773,19.1166211 C4.06449284,19.6139598 4.48716416,20 5,20 L5,20 L19,20 L19.1166211,19.9932723 C19.6139598,19.9355072 20,19.5128358 20,19 L20,19 L20,15 L20.0067277,14.8833789 C20.0644928,14.3860402 20.4871642,14 21,14 Z M12,2 L12.0183593,2.001 L12.029,2.001 L12.081,2.003 L12.1482339,2.010911 L12.1482339,2.010911 L12.202746,2.02065418 L12.202746,2.02065418 C12.2228257,2.02471645 12.2419212,2.02926282 12.2607957,2.03434781 C12.2788608,2.03927656 12.2975976,2.04489462 12.316189,2.05107328 C12.3335527,2.05681015 12.3502364,2.06288066 12.3667063,2.06937575 C12.3858551,2.07691653 12.4051556,2.08521338 12.4242321,2.09414586 C12.4427011,2.10284934 12.4608561,2.11205943 12.4786822,2.12179647 C12.4935488,2.12981337 12.5087703,2.13863517 12.5238,2.14789148 C12.5456983,2.16150681 12.5664533,2.17541687 12.5866395,2.19006311 C12.5953343,2.19627953 12.6041603,2.2029095 12.6128994,2.20970461 C12.6197272,2.21512226 12.6225945,2.21739784 12.625449,2.21968877 L12.7071068,2.29289322 L16.9497475,6.53553391 C17.3402718,6.9260582 17.3402718,7.55922318 16.9497475,7.94974747 C16.7995458,8.09994912 16.6134506,8.1923809 16.4190722,8.22704282 L16.3016721,8.24090759 L16.3016721,8.24090759 L16.1836093,8.24090759 C15.9870221,8.22935362 15.7931959,8.16002978 15.6297412,8.03293607 L15.5355339,7.94974747 L12.9993593,5.414 L13,15 C13,15.5128358 12.6139598,15.9355072 12.1166211,15.9932723 L12,16 L12,16 C11.4871642,16 11.0644928,15.6139598 11.0067277,15.1166211 L11,15 L10.9993593,5.414 L8.46446609,7.94974747 C8.31426444,8.09994912 8.1281692,8.1923809 7.93379082,8.22704282 L7.8163907,8.24090759 L7.8163907,8.24090759 L7.69832793,8.24090759 C7.46242327,8.22704282 7.23049451,8.12998945 7.05025253,7.94974747 C6.68976857,7.58926351 6.66203903,7.02203245 6.96706393,6.62974124 L7.05025253,6.53553391 L11.2928932,2.29289322 L11.3538862,2.2366872 L11.3538862,2.2366872 L11.367,2.225 L11.355,2.236 L11.375,2.219 L11.367,2.225 L11.374551,2.21968877 L11.376,2.218 L11.4182204,2.1864634 L11.4182204,2.1864634 L11.4487864,2.1654895 L11.4487864,2.1654895 L11.4804822,2.14537046 C11.4909214,2.1389112 11.5015317,2.13271731 11.5122285,2.1267352 C11.5332887,2.11503374 11.5547964,2.10399512 11.5767381,2.09372989 C11.5954049,2.08497258 11.6144279,2.07680529 11.6336374,2.06925531 C11.6497636,2.06288066 11.6664473,2.05681015 11.6833314,2.0511777 C11.7016611,2.04514099 11.7196452,2.03972549 11.73774,2.03482678 C11.7572852,2.02943346 11.7776365,2.02458407 11.7982182,2.020367 C11.8160941,2.01679589 11.8337848,2.01366783 11.8515331,2.0110178 C11.8705796,2.00810098 11.8903051,2.00574796 11.9101982,2.00397748 L11.9409686,2.0017331 L11.9409686,2.0017331 L11.9806591,2.0001833 L12,2 L12,2 Z"/>
</svg>

<svg xmlns="http://www.w3.org/2000/svg" viewBox="0 0 24 24">
  <path d="M21 14a1 1 0 0 1 1 1v4.18A3 3 0 0 1 19 22H4.82A3 3 0 0 1 2 19v-4.12A1 1 0 0 1 4 15v4.12A1 1 0 0 0 5 20h14.12a1 1 0 0 0 .88-1v-4.12a1 1 0 0 1 1-.88zM12 2h.08l.07.01.05.01a.93.93 0 0 1 .39.17.82.82 0 0 1 .04.03l.08.07 4.24 4.25a1 1 0 0 1-.53 1.69l-.12.01h-.12a1 1 0 0 1-.55-.2l-.1-.09L13 5.41V15a1 1 0 0 1-.88 1H12a1 1 0 0 1-1-.88V5.4L8.46 7.95a1 1 0 0 1-.53.28l-.11.01H7.7a1 1 0 0 1-.73-1.61l.08-.1 4.24-4.24.06-.05.02-.02-.01.02.02-.02h-.01l.05-.03.03-.02.03-.02a.83.83 0 0 1 .2-.1 1.05 1.05 0 0 1 .23-.05H12z"/>
</svg>
